images/phone.svg

<svg width="21" height="19" viewBox="0 0 21 19" fill="none" xmlns="http://www.w3.org/2000/svg">
<path fill-rule="evenodd" clip-rule="evenodd" d="M0 2.11111C0 0.945177 0.940202 0 2.1 0H18.9C20.0598 0 21 0.945177 21 2.11111V16.8889C21 18.0548 20.0598 19 18.9 19H2.1C0.940203 19 0 18.0548 0 16.8889V2.11111ZM2.1 2.11111H18.9V3.65731L10.5 9.28694L2.1 3.65731V2.11111ZM2.1 6.19455V16.8889H18.9V6.19455L11.0824 11.4338C10.7297 11.6702 10.2703 11.6702 9.91756 11.4338L2.1 6.19455Z" fill="#0086FF"/>
</svg>

<svg width="21" height="19" fill="none" xmlns="http://www.w3.org/2000/svg"><path fill-rule="evenodd" clip-rule="evenodd" d="M0 2.111C0 .945.94 0 2.1 0h16.8c1.16 0 2.1.945 2.1 2.111V16.89c0 1.165-.94 2.11-2.1 2.11H2.1C.94 19 0 18.055 0 16.889V2.11Zm2.1 0h16.8v1.546l-8.4 5.63-8.4-5.63V2.111Zm0 4.084v10.694h16.8V6.195l-7.818 5.239a1.045 1.045 0 0 1-1.164 0L2.1 6.194Z" fill="#0086FF"/></svg>
